X: 46
T: The HOAXIM GOOSE
%R: hornpipe, reel
B: Jean White "100 Popular Hornpipes, Reels, Jigs and Country Dances", Boston 1880 p.20
F: http://www.loc.gov/resource/sm1880.09124.0#seq-1
Z: 2014 John Chambers <jc:trillian.mit.edu>
M: C|
L: 1/8
K: Bb
% - - - - - - - - - - - - - - - - - - - - - - - - - - - - -
F |\
BABc dBAB | dBfB gBfB |\
Bdce dfef | gecB BAGF |
BABc dBAB | dBfB gBfB |\
Bdce dfef | gecA B2z2 :|
|: =e |\
f=efg fgaf | babg gfed |\
efg^f gecB | Acfc BAGF |
babf g^fge | f=efd _edec |\
dBec fdge | dcBA B2z2 H:|
% - - - - - - - - - - - - - - - - - - - - - - - - - - - - -

%%sep 1 1 500
%%sep 1 1 500
